public/imagenes/graph.svg

<!DOCTYPE svg PUBLIC "-//W3C//DTD SVG 1.1//EN" "http://www.w3.org/Graphics/SVG/1.1/DTD/svg11.dtd">
<!-- Uploaded to: SVG Repo, www.svgrepo.com, Transformed by: SVG Repo Mixer Tools -->
<svg width="64px" height="64px" viewBox="0 -0.5 25 25" fill="none" xmlns="http://www.w3.org/2000/svg">
<g id="SVGRepo_bgCarrier" stroke-width="0"/>
<g id="SVGRepo_tracerCarrier" stroke-linecap="round" stroke-linejoin="round"/>
<g id="SVGRepo_iconCarrier"> <path d="M19.5 19H9.5C7.29086 19 5.5 17.2091 5.5 15V5" stroke="#000000" stroke-width="1.5" stroke-linecap="round" stroke-linejoin="round"/> <path d="M15.619 7.25C15.2048 7.25 14.869 7.58579 14.869 8C14.869 8.41421 15.2048 8.75 15.619 8.75V7.25ZM19.5 8.75C19.9142 8.75 20.25 8.41421 20.25 8C20.25 7.58579 19.9142 7.25 19.5 7.25V8.75ZM20.25 8C20.25 7.58579 19.9142 7.25 19.5 7.25C19.0858 7.25 18.75 7.58579 18.75 8H20.25ZM18.75 11.607C18.75 12.0212 19.0858 12.357 19.5 12.357C19.9142 12.357 20.25 12.0212 20.25 11.607H18.75ZM20.0765 8.47973C20.3414 8.16133 20.2981 7.68844 19.9797 7.42349C19.6613 7.15855 19.1884 7.20188 18.9235 7.52027L20.0765 8.47973ZM15.5 12.807L16.0038 13.3626C16.0298 13.339 16.054 13.3137 16.0765 13.2867L15.5 12.807ZM13.931 12.868L13.4663 13.4567L13.4718 13.461L13.931 12.868ZM12.882 12.04L13.3467 11.4513L13.3429 11.4483L12.882 12.04ZM11.2 12.223L10.6226 11.7443C10.6152 11.7532 10.608 11.7623 10.601 11.7716L11.2 12.223ZM11.072 12.375L11.6074 12.9002C11.6112 12.8963 11.615 12.8923 11.6187 12.8884L11.072 12.375ZM7.83052 14.6088C7.54048 14.9046 7.54508 15.3794 7.8408 15.6694C8.13652 15.9595 8.61138 15.9549 8.90141 15.6592L7.83052 14.6088ZM15.619 8.75H19.5V7.25H15.619V8.75ZM18.75 8V11.607H20.25V8H18.75ZM18.9235 7.52027L14.9235 12.3273L16.0765 13.2867L20.0765 8.47973L18.9235 7.52027ZM14.9962 12.2514C14.8266 12.4052 14.5711 12.4151 14.3901 12.275L13.4718 13.461C14.228 14.0465 15.2953 14.005 16.0038 13.3626L14.9962 12.2514ZM14.3956 12.2793L13.3466 11.4513L12.4173 12.6287L13.4663 13.4567L14.3956 12.2793ZM13.3429 11.4483C12.5051 10.7957 11.3004 10.9268 10.6226 11.7443L11.7773 12.7017C11.9377 12.5082 12.2228 12.4772 12.4211 12.6317L13.3429 11.4483ZM10.601 11.7716C10.5774 11.8029 10.5521 11.833 10.5252 11.8616L11.6187 12.8884C11.6826 12.8203 11.7427 12.7489 11.7989 12.6744L10.601 11.7716ZM10.5365 11.8498L7.83052 14.6088L8.90141 15.6592L11.6074 12.9002L10.5365 11.8498Z" fill="#000000"/> </g>
</svg>

<svg xmlns="http://www.w3.org/2000/svg" width="64" height="64" fill="none" viewBox="0 -0.5 25 25"><path stroke="#000" stroke-linecap="round" stroke-linejoin="round" stroke-width="1.5" d="M19.5 19h-10a4 4 0 0 1-4-4V5"/><path fill="#000" d="M15.619 7.25a.75.75 0 0 0 0 1.5zm3.881 1.5a.75.75 0 0 0 0-1.5zm.75-.75a.75.75 0 0 0-1.5 0zm-1.5 3.607a.75.75 0 0 0 1.5 0zm1.326-3.127a.75.75 0 0 0-1.152-.96zM15.5 12.807l.504.556a1 1 0 0 0 .072-.076zm-1.569.061-.465.589.006.004zm-1.049-.828.465-.589-.004-.003zm-1.682.183-.577-.479-.022.028zm-.128.152.535.525.012-.012zm-3.241 2.234a.75.75 0 0 0 1.07 1.05zm7.788-5.859H19.5v-1.5h-3.881zM18.75 8v3.607h1.5V8zm.174-.48-4 4.807 1.152.96 4-4.807zm-3.928 4.731a.47.47 0 0 1-.606.024l-.918 1.186a1.97 1.97 0 0 0 2.532-.098zm-.6.028-1.05-.828-.929 1.178 1.05.828zm-1.053-.83a1.965 1.965 0 0 0-2.72.295l1.154.958a.465.465 0 0 1 .644-.07zm-2.742.323a1 1 0 0 1-.076.09l1.094 1.026q.096-.102.18-.214zm-.065.078-2.705 2.759 1.07 1.05 2.706-2.759z"/></svg>
